X: 34572
T: Riptide
R: reel
M: 4/4
K: Fmajor
|:C|"F"A,2>A,2 B,A,G,A,|"Gm"B,2 DB, GB,DB,|"C7"G2>F2 ECDE|"F"F2 AF BFAF|
"F"A,2>A,2 B,A,G,A,|"Gm"B,2 DB, GB,DB,|"C7"G2>F2 ECDE|FAGE F2F:|
G|"F"Ac c/c/c "Dm"AF F/F/F|"Gm"DFAc BAGF|"C7"E2 GE CEGE|"F"F2 AF BFAF|
"F"Ac c/c/c "Dm"AF F/F/F|"Gm"DFAc BAGF|"C7"E2 GE CEGE|"F"FAGE F2FG||
"F"Ac c/c/c "Dm"AF F/F/F|"Gm"DFAc BAGF|"C7"E2 GE CEGE|"F"FAGE "Bb"FDCB,|
"F"A,2>A,2 B,A,G,A,|"Gm"B,2 DB, GB,DB,|"C7"G2>F2 ECDE|"F"FAGE F2F2||

